X:1
T:Title
%%score { ( 1 4 ) | ( 2 3 ) }
L:1/8
Q:1/4=100
M:4/4
K:F
V:1 treble nm="Grand Piano"
V:4 treble 
V:2 bass 
V:3 bass 
V:1
 [Fc]4 [A,F]2 [DFB]2 | [CFA]2 [B,EG]2 [A,F]2 [Fd]2 | [Fc]2 [FA]2 [GB]2 [FA]2 | [EG]6 [FA]2 | %4
w: Robert~Lowry * *||||
 [FB]2 [Fd]2 [Ec]2 [CGB]2 | [CFA]2 [CEc]2 [CGB]2 [CFA]2 | [B,DG]2 [DGB]2 [CFA]2 [CEG]2 | %7
w: |||
 [CFA]2 C2 B,2 c2 | [GB]2 A2 G2 [CGB]2 | [FA]2 c2 c2 [DGB]2 | [FA]4 [EG]4 | F8 |] %12
w: |||||
V:2
 [F,A,]4 D,2 B,,2 | C,2 C,2 D,2 [B,,B,]2 | [F,A,]2 [F,C]2 [E,C]2 [F,C]2 | [C,C]6 [F,C]2 | %4
 [D,B,]2 [B,,B,]2 [C,G,]2 E,2 | F,2 C,2 E,2 F,2 | B,,2 B,,2 C,2 C,2 | F,2 A,2 G,2 [F,A,F]2 | %8
 z2[K:treble] F2 E2[K:bass] C,2 | z2[K:treble] A2 A2[K:bass] B,,2 | C,2 C,2 C,2 C,2 | [F,A,]8 |] %12
V:3
 x8 | x8 | x8 | x8 | x8 | x8 | x8 | x8 | [C,C]6[K:treble][K:bass] z2 | %9
 [F,C]6[K:treble][K:bass] z2 | x8 | x8 |] %12
V:4
 x8 | x8 | x8 | x8 | x8 | x8 | x8 | x8 | x8 | x8 | C2 C2 C2 B,2 | x8 |] %12

